assets/emojis/firefox.svg

<svg xmlns="http://www.w3.org/2000/svg" viewBox="0 0 512 512"><!--! Font Awesome Free 6.5.1 by @fontawesome - https://fontawesome.com License - https://fontawesome.com/license/free (Icons: CC BY 4.0, Fonts: SIL OFL 1.1, Code: MIT License) Copyright 2023 Fonticons, Inc. --><path d="M130.22 127.548C130.38 127.558 130.3 127.558 130.22 127.548V127.548ZM481.64 172.898C471.03 147.398 449.56 119.898 432.7 111.168C446.42 138.058 454.37 165.048 457.4 185.168C457.405 185.306 457.422 185.443 457.45 185.578C429.87 116.828 383.098 89.1089 344.9 28.7479C329.908 5.05792 333.976 3.51792 331.82 4.08792L331.7 4.15792C284.99 30.1109 256.365 82.5289 249.12 126.898C232.503 127.771 216.219 131.895 201.19 139.035C199.838 139.649 198.736 140.706 198.066 142.031C197.396 143.356 197.199 144.87 197.506 146.323C197.7 147.162 198.068 147.951 198.586 148.639C199.103 149.327 199.76 149.899 200.512 150.318C201.264 150.737 202.096 150.993 202.954 151.071C203.811 151.148 204.676 151.045 205.491 150.768L206.011 150.558C221.511 143.255 238.408 139.393 255.541 139.238C318.369 138.669 352.698 183.262 363.161 201.528C350.161 192.378 326.811 183.338 304.341 187.248C392.081 231.108 368.541 381.784 246.951 376.448C187.487 373.838 149.881 325.467 146.421 285.648C146.421 285.648 157.671 243.698 227.041 243.698C234.541 243.698 255.971 222.778 256.371 216.698C256.281 214.698 213.836 197.822 197.281 181.518C188.434 172.805 184.229 168.611 180.511 165.458C178.499 163.75 176.392 162.158 174.201 160.688C168.638 141.231 168.399 120.638 173.51 101.058C148.45 112.468 128.96 130.508 114.8 146.428H114.68C105.01 134.178 105.68 93.7779 106.25 85.3479C106.13 84.8179 99.022 89.0159 98.1 89.6579C89.5342 95.7103 81.5528 102.55 74.26 110.088C57.969 126.688 30.128 160.242 18.76 211.318C14.224 231.701 12 255.739 12 263.618C12 398.318 121.21 507.508 255.92 507.508C376.56 507.508 478.939 420.281 496.35 304.888C507.922 228.192 481.64 173.82 481.64 172.898Z"/></svg>

<svg xmlns="http://www.w3.org/2000/svg" viewBox="0 0 512 512"><path d="M130.2 127.5c.2 0 .1 0 0 0zM481.6 173c-10.6-25.5-32-53-48.9-61.7a253 253 0 0 1 24.8 74.4C429.8 116.8 383 89 344.9 28.7c-15-23.6-11-25.2-13-24.6h-.2c-46.7 26-75.3 78.4-82.6 122.8-16.6.9-32.9 5-48 12.1a6.5 6.5 0 0 0-3.6 7.3 7 7 0 0 0 1 2.3 6.2 6.2 0 0 0 2 1.7c.8.4 1.6.7 2.5.8a6.2 6.2 0 0 0 2.5-.3l.5-.2a118.7 118.7 0 0 1 49.5-11.4c62.9-.5 97.2 44 107.7 62.3a84.2 84.2 0 0 0-58.9-14.3c87.8 44 64.2 194.6-57.3 189.2-59.5-2.6-97.1-51-100.6-90.8 0 0 11.3-41.9 80.6-41.9 7.5 0 29-21 29.4-27-.1-2-42.6-18.9-59.1-35.2-8.9-8.7-13-12.9-16.8-16a70 70 0 0 0-6.3-4.8 113 113 0 0 1-.7-59.6 180.6 180.6 0 0 0-58.7 45.3h-.1c-9.7-12.2-9-52.6-8.4-61-.2-.6-7.3 3.6-8.2 4.3a209.9 209.9 0 0 0-79.3 121.7 309.8 309.8 0 0 0-6.8 52.2 244 244 0 0 0 244 244c120.6 0 223-87.3 240.4-202.7 11.5-76.7-14.8-131-14.8-132z"/></svg>
